src/icons/link-out.svg

<svg width="24" height="24" viewBox="0 0 24 24" fill="none" xmlns="http://www.w3.org/2000/svg">
<path d="M13 2H22V11H20V5.41421L10.7071 14.7071L9.29289 13.2929L18.5858 4H13V2Z" fill="black"/>
<path d="M3 3H9V5H5V19H19V15H21V21H3V3Z" fill="black"/>
</svg>

<svg xmlns="http://www.w3.org/2000/svg" width="24" height="24" fill="none"><path fill="currentColor" d="M13 2h9v9h-2V5.414l-9.293 9.293-1.414-1.414L18.586 4H13z"/><path fill="currentColor" d="M3 3h6v2H5v14h14v-4h2v6H3z"/></svg>
